X: 44
T: Miss Frances Drummond's Jigg
R: jig
B: William Shepherd "1st Collection" 1793 p.4 #4
F: http://imslp.org/wiki/File:PMLP73094-Shepherd_Collections_HMT.pdf
C: William Shepherd (17??-1812)
Z: 2012 John Chambers <jc:trillian.mit.edu>
M: 6/8
L: 1/8
K: Em
B |\
G2E TE<GE | B,<EE TE2F | G2E E<GE | F<dB AFD |\
G2E TE<GE | B,<EE TE2F | G>AB {Bc}d>cB | AGF E2 :|
E |\
TG2A BGc | (B/c/d)B G2G | TF2G A2B | AdB AFD |\
TG2A BGc | (B/c/d)B G2D | EFG AcB | AGF {F}E2 ||
F |\
TG2A BGc | (B/c/d)B G2G | TF2G A2B | AdB AFD |\
GEG AFA | BGB cAc | Bge dcB | AGF {F}E2 |]
